resources/images/chick.svg

<svg xmlns="http://www.w3.org/2000/svg" xmlns:xlink="http://www.w3.org/1999/xlink" preserveAspectRatio="none" width="285" height="427" viewBox="0 0 285 427"><defs><g id="a"><path fill="#E2AC07" d="M206.1 325.8q1.35-7.1 4.15-14.4L176 319.15q5 3.35 9.15 10.45 6.8 11.8 11.2 33.95-32.65 10.95-39.45 19.8l40.6-9.9v37.6l13.2-39.65 44.25 11.95q-8.6-8.95-45.35-19.35-7.4-18.3-3.5-38.2m-93.95 32.25q2-14.85 10.7-30.6-12.5-3.3-20.95-6.7-.15 16.15.4 32.05-60.85-8.35-52.9-1.9l38 8.6Q69 381.15 67.2 390.7l34.15-29.3 25.9 24.05-15.1-27.4m-67.9-198.9q-2.65-1.6-5.05-3.5-15 25.7-15 56.95 0 51.95 41.55 86.7 10.5 8.95 22.2 15.35 1.45.8 12.35 5.45l1.9-3.2-.2-.1q-89.05-51.75-57.75-157.65m-29.6-43.95q.45 1.7 1 3.3 3.25-5.4 7.25-11-2.45-4.05-4.9-8.2l-6.6-11.85q-.95 12.15 3.25 27.75m33.15 27.65q-2.65-3.2-5.3-6.7-6.65-1.75-18.6 1.65 1.8 3.1 3.8 5.9 5 6.95 11.5 11.95 2.4 1.9 5.05 3.5 14.75 8.9 35.9 9.1-13.2-2.7-31.05-23.85-.7-.8-1.3-1.55z"/><path fill="#F90" d="M42.5 136.15q.7.2 1.45.45L32.2 95.35q-5.05 6.15-9.3 12.15-4 5.6-7.25 11-8.8 14.45-12.25 27.25 11.7-5.4 20.5-7.95 11.95-3.4 18.6-1.65z"/><path fill="#FC0" d="M179 94.25v-2.3q-.4-33.3-24.9-54.5-25.3-22.3-61.8-20.9-36.5 1.4-55.1 19.55-10.1 9.7-17.05 22.55-7.7 14.6-8.75 28.8L18 99.3q2.45 4.15 4.9 8.2 4.25-6 9.3-12.15l11.75 41.25q-.75-.25-1.45-.45 2.65 3.5 5.3 6.7.6.75 1.3 1.55 17.85 21.15 31.05 23.85 35.15.4 66.85-19.45 31.65-19.85 32-54.55m-93.45-2.3q-.85 3.95-2.35 6.65-5.85 11.2-18 5.9-2.8-1.15-5.9-3.05 1.4-3.8 3-6.25 5.9-8.7 17.35-5.35 2.9.7 5.9 2.1m-26.25 9.5q3.1 1.9 5.9 3.05l-2.9-9.3q-1.6 2.45-3 6.25m23.9-2.85q1.5-2.7 2.35-6.65-3-1.4-5.9-2.1l3.55 8.75m95.8-6.65v2.3q-.35 34.7-32 54.55-31.7 19.85-66.85 19.45-21.15-.2-35.9-9.1Q12.95 265.05 102 316.8l.2.1-1.9 3.2q.8.3 1.6.65 8.45 3.4 20.95 6.7 3.05.85 6.45 1.7 17.25 2.95 36.35 2.05 10.15-.5 19.5-1.6-4.15-7.1-9.15-10.45l34.25-7.75q-2.8 7.3-4.15 14.4 29.9-7.2 49.5-23.35 31.4-26 24.95-67.9-6.6-42.05-37-92.5Q218.8 101 179 91.95m-51.5 96.35q-12.55 142.15 114.4 108.65-126.95 33.5-114.4-108.65z"/><path d="M79.65 89.85Q68.2 86.5 62.3 95.2l2.9 9.3q12.15 5.3 18-5.9l-3.55-8.75m-14.35 5.5q-.1 1.85.8 3.35 1.7 3.35 4.75 4.35 1.85.65 3.2.45-2.1 1.1-4.55.3-2.65-.95-4.05-3.7-.95-2.3-.15-4.75m9.4 1.8q-.9-.2-1.35-1.2-.3-.6 0-1.55.3-.9 1.05-1.4.8-.35 1.75-.1.9.4 1.15 1.05.5 1 .2 1.85-.35.9-1.1 1.25-.6.45-1.7.1z"/><path fill="#CCC" d="M73.35 95.95q.45 1 1.35 1.2 1.1.35 1.7-.1.75-.35 1.1-1.25.3-.85-.2-1.85-.25-.65-1.15-1.05-.95-.25-1.75.1-.75.5-1.05 1.4-.3.95 0 1.55M66.1 98.7q-.9-1.5-.8-3.35-.8 2.45.15 4.75 1.4 2.75 4.05 3.7 2.45.8 4.55-.3-1.35.2-3.2-.45-3.05-1-4.75-4.35z"/></g><path id="b" stroke="#212121" stroke-width="2" stroke-linejoin="round" stroke-linecap="round" fill="none" d="M179 91.95v2.3q-.35 34.7-32 54.55-31.7 19.85-66.85 19.45-21.15-.2-35.9-9.1M100.3 320.1q.8.3 1.6.65 8.45 3.4 20.95 6.7 3.05.85 6.45 1.7 17.25 2.95 36.35 2.05 10.15-.5 19.5-1.6-4.15-7.1-9.15-10.45m34.25-7.75q-2.8 7.3-4.15 14.4 29.9-7.2 49.5-23.35 31.4-26 24.95-67.9-6.6-42.05-37-92.5Q218.8 101 179 91.95q-.4-33.3-24.9-54.5-25.3-22.3-61.8-20.9-36.5 1.4-55.1 19.55-10.1 9.7-17.05 22.55-7.7 14.6-8.75 28.8m11.5 20.05q4.25-6 9.3-12.15l11.75 41.25q-.75-.25-1.45-.45M83.2 98.6q1.5-2.7 2.35-6.65-3-1.4-5.9-2.1l3.55 8.75q-5.85 11.2-18 5.9-2.8-1.15-5.9-3.05 1.4-3.8 3-6.25 5.9-8.7 17.35-5.35M23.9 137.8q-8.8 2.55-20.5 7.95 3.45-12.8 12.25-27.25-.55-1.6-1-3.3-4.2-15.6-3.25-27.75m88.9 232.65q-10.9-4.65-12.35-5.45-11.7-6.4-22.2-15.35-41.55-34.75-41.55-86.7 0-31.25 15-56.95-6.5-5-11.5-11.95-2-2.8-3.8-5.9 11.95-3.4 18.6-1.65M15.65 118.5q3.25-5.4 7.25-11m21.35 51.65q-2.65-1.6-5.05-3.5M62.3 95.2l2.9 9.3m36.7 216.25q-.15 16.15.4 32.05-60.85-8.35-52.9-1.9l38 8.6Q69 381.15 67.2 390.7l34.15-29.3 25.9 24.05-15.1-27.4q2-14.85 10.7-30.6m83.25-1.65q-3.9 19.9 3.5 38.2 36.75 10.4 45.35 19.35L210.7 371.4l-13.2 39.65v-37.6l-40.6 9.9q6.8-8.85 39.45-19.8-4.4-22.15-11.2-33.95M127.5 188.3q-12.55 142.15 114.4 108.65"/></defs><g><use xlink:href="#a"/><use xlink:href="#b"/></g></svg>

<svg xmlns="http://www.w3.org/2000/svg" version="1.1" xmlns:xlink="http://www.w3.org/1999/xlink" preserveAspectRatio="none" x="0px" y="0px" width="285px" height="427px" viewBox="0 0 285 427">
<defs>
<g id="Layer0_0_FILL">
<path fill="#E2AC07" stroke="none" d="
M 206.1 325.8
Q 207.45 318.7 210.25 311.4
L 176 319.15
Q 181 322.5 185.15 329.6 191.95 341.4 196.35 363.55 163.7 374.5 156.9 383.35
L 197.5 373.45 197.5 411.05 210.7 371.4 254.95 383.35
Q 246.35 374.4 209.6 364 202.2 345.7 206.1 325.8
M 112.15 358.05
Q 114.15 343.2 122.85 327.45 110.35 324.15 101.9 320.75 101.75 336.9 102.3 352.8 41.45 344.45 49.4 350.9
L 87.4 359.5
Q 69 381.15 67.2 390.7
L 101.35 361.4 127.25 385.45 112.15 358.05
M 44.25 159.15
Q 41.6 157.55 39.2 155.65 24.2 181.35 24.2 212.6 24.2 264.55 65.75 299.3 76.25 308.25 87.95 314.65 89.4 315.45 100.3 320.1
L 102.2 316.9
Q 102.1 316.85 102 316.8 12.95 265.05 44.25 159.15
M 14.65 115.2
Q 15.1 116.9 15.65 118.5 18.9 113.1 22.9 107.5 20.45 103.45 18 99.3
L 11.4 87.45
Q 10.45 99.6 14.65 115.2
M 47.8 142.85
Q 45.15 139.65 42.5 136.15 35.85 134.4 23.9 137.8 25.7 140.9 27.7 143.7 32.7 150.65 39.2 155.65 41.6 157.55 44.25 159.15 59 168.05 80.15 168.25 66.95 165.55 49.1 144.4 48.4 143.6 47.8 142.85 Z"/>

<path fill="#FF9900" stroke="none" d="
M 42.5 136.15
Q 43.2 136.35 43.95 136.6
L 32.2 95.35
Q 27.15 101.5 22.9 107.5 18.9 113.1 15.65 118.5 6.85 132.95 3.4 145.75 15.1 140.35 23.9 137.8 35.85 134.4 42.5 136.15 Z"/>

<path fill="#FFCC00" stroke="none" d="
M 179 94.25
Q 179 93.05 179 91.95 178.6 58.65 154.1 37.45 128.8 15.15 92.3 16.55 55.8 17.95 37.2 36.1 27.1 45.8 20.15 58.65 12.45 73.25 11.4 87.45
L 18 99.3
Q 20.45 103.45 22.9 107.5 27.15 101.5 32.2 95.35
L 43.95 136.6
Q 43.2 136.35 42.5 136.15 45.15 139.65 47.8 142.85 48.4 143.6 49.1 144.4 66.95 165.55 80.15 168.25 115.3 168.65 147 148.8 178.65 128.95 179 94.25
M 85.55 91.95
Q 84.7 95.9 83.2 98.6 77.35 109.8 65.2 104.5 62.4 103.35 59.3 101.45 60.7 97.65 62.3 95.2 68.2 86.5 79.65 89.85 82.55 90.55 85.55 91.95
M 59.3 101.45
Q 62.4 103.35 65.2 104.5
L 62.3 95.2
Q 60.7 97.65 59.3 101.45
M 83.2 98.6
Q 84.7 95.9 85.55 91.95 82.55 90.55 79.65 89.85
L 83.2 98.6
M 179 91.95
Q 179 93.05 179 94.25 178.65 128.95 147 148.8 115.3 168.65 80.15 168.25 59 168.05 44.25 159.15 12.95 265.05 102 316.8 102.1 316.85 102.2 316.9
L 100.3 320.1
Q 101.1 320.4 101.9 320.75 110.35 324.15 122.85 327.45 125.9 328.3 129.3 329.15 146.55 332.1 165.65 331.2 175.8 330.7 185.15 329.6 181 322.5 176 319.15
L 210.25 311.4
Q 207.45 318.7 206.1 325.8 236 318.6 255.6 302.45 287 276.45 280.55 234.55 273.95 192.5 243.55 142.05 218.8 101 179 91.95
M 127.5 188.3
Q 114.95 330.45 241.9 296.95 114.95 330.45 127.5 188.3 Z"/>

<path fill="#000000" stroke="none" d="
M 79.65 89.85
Q 68.2 86.5 62.3 95.2
L 65.2 104.5
Q 77.35 109.8 83.2 98.6
L 79.65 89.85
M 65.3 95.35
Q 65.2 97.2 66.1 98.7 67.8 102.05 70.85 103.05 72.7 103.7 74.05 103.5 71.95 104.6 69.5 103.8 66.85 102.85 65.45 100.1 64.5 97.8 65.3 95.35
M 74.7 97.15
Q 73.8 96.95 73.35 95.95 73.05 95.35 73.35 94.4 73.65 93.5 74.4 93 75.2 92.65 76.15 92.9 77.05 93.3 77.3 93.95 77.8 94.95 77.5 95.8 77.15 96.7 76.4 97.05 75.8 97.5 74.7 97.15 Z"/>

<path fill="#CCCCCC" stroke="none" d="
M 73.35 95.95
Q 73.8 96.95 74.7 97.15 75.8 97.5 76.4 97.05 77.15 96.7 77.5 95.8 77.8 94.95 77.3 93.95 77.05 93.3 76.15 92.9 75.2 92.65 74.4 93 73.65 93.5 73.35 94.4 73.05 95.35 73.35 95.95
M 66.1 98.7
Q 65.2 97.2 65.3 95.35 64.5 97.8 65.45 100.1 66.85 102.85 69.5 103.8 71.95 104.6 74.05 103.5 72.7 103.7 70.85 103.05 67.8 102.05 66.1 98.7 Z"/>
</g>

<path id="Layer0_0_1_STROKES" stroke="#212121" stroke-width="2" stroke-linejoin="round" stroke-linecap="round" fill="none" d="
M 179 91.95
Q 179 93.05 179 94.25 178.65 128.95 147 148.8 115.3 168.65 80.15 168.25 59 168.05 44.25 159.15
M 100.3 320.1
Q 101.1 320.4 101.9 320.75 110.35 324.15 122.85 327.45 125.9 328.3 129.3 329.15 146.55 332.1 165.65 331.2 175.8 330.7 185.15 329.6 181 322.5 176 319.15
M 210.25 311.4
Q 207.45 318.7 206.1 325.8 236 318.6 255.6 302.45 287 276.45 280.55 234.55 273.95 192.5 243.55 142.05 218.8 101 179 91.95 178.6 58.65 154.1 37.45 128.8 15.15 92.3 16.55 55.8 17.95 37.2 36.1 27.1 45.8 20.15 58.65 12.45 73.25 11.4 87.45
M 22.9 107.5
Q 27.15 101.5 32.2 95.35
L 43.95 136.6
Q 43.2 136.35 42.5 136.15
M 83.2 98.6
Q 84.7 95.9 85.55 91.95 82.55 90.55 79.65 89.85
L 83.2 98.6
Q 77.35 109.8 65.2 104.5 62.4 103.35 59.3 101.45 60.7 97.65 62.3 95.2 68.2 86.5 79.65 89.85
M 23.9 137.8
Q 15.1 140.35 3.4 145.75 6.85 132.95 15.65 118.5 15.1 116.9 14.65 115.2 10.45 99.6 11.4 87.45
M 100.3 320.1
Q 89.4 315.45 87.95 314.65 76.25 308.25 65.75 299.3 24.2 264.55 24.2 212.6 24.2 181.35 39.2 155.65 32.7 150.65 27.7 143.7 25.7 140.9 23.9 137.8 35.85 134.4 42.5 136.15
M 15.65 118.5
Q 18.9 113.1 22.9 107.5
M 44.25 159.15
Q 41.6 157.55 39.2 155.65
M 62.3 95.2
L 65.2 104.5
M 101.9 320.75
Q 101.75 336.9 102.3 352.8 41.45 344.45 49.4 350.9
L 87.4 359.5
Q 69 381.15 67.2 390.7
L 101.35 361.4 127.25 385.45 112.15 358.05
Q 114.15 343.2 122.85 327.45
M 206.1 325.8
Q 202.2 345.7 209.6 364 246.35 374.4 254.95 383.35
L 210.7 371.4 197.5 411.05 197.5 373.45 156.9 383.35
Q 163.7 374.5 196.35 363.55 191.95 341.4 185.15 329.6
M 127.5 188.3
Q 114.95 330.45 241.9 296.95"/>
</defs>

<g transform="matrix( 1, 0, 0, 1, 0,0) ">
<use xlink:href="#Layer0_0_FILL"/>

<use xlink:href="#Layer0_0_1_STROKES"/>
</g>
</svg>
